X:213
T:Home, Home, Home
M:6/8
L:1/8
Q:1/4=3D120
K:G
D|\
G3 B2D|G2A B2D/D/|G2F G2E|D3-D2D|
G2F G2B|d2d B2A|A2G A2B|A3-A2G|
B2A B2A|G2G G2B|c2B c2e|d3-d2F|
G2G G2A|B2B d2B|A2G A2B|G3 G2A|
B6|B6|A2G A2B|G3 G2B|
d6|e3 d2B|A2G A2B|A3 G2A|
B3 B2A|G3 A2B|c2B c2e|d3-d2D|
G2F G2A|B3 B2B|c2A F2A|G3-G2||
